icons/1_Primary/GOV.BR.svg

<svg xmlns="http://www.w3.org/2000/svg" viewBox="0 0 1024 1024">
   <circle cx="512" cy="512" r="512" style="fill:#46ad44"/>
   <path d="M290.59 472.67h-.49a48.443 48.443 0 0 0-42.14-25.25c-38.58 0-55.95 27.61-55.95 64.53s21.18 62.41 55.24 62.41c16.61.57 32.35-7.44 41.68-21.19h.48v6.68c0 24.29-13.33 35.95-38.1 35.95a85.225 85.225 0 0 1-41.92-10.25l-2.14 33.83c15.25 5.25 31.27 7.89 47.39 7.85 50.02 0 74.76-16.43 74.76-67.38V450.31h-38.8v22.36Zm-2.62 36.94c0 19.04-12.15 31.91-27.4 31.91-12.86 0-24.29-10.95-24.28-30.24 0-16.91 8.34-30.96 24.28-30.96.83-.01 1.66.01 2.47.08 14.95 1.19 26.1 14.26 24.93 29.21Zm306.75-58.69-44.84 123.29h-47.69l-44.93-123.29h44.95l25.09 87.84h.47l25.29-87.84h41.65Zm-192.99-2.88c-40.69 0-71.67 23.63-71.67 64.56 0 40.69 30.98 64.34 71.67 64.34s71.67-23.64 71.67-64.34-30.98-64.56-71.67-64.56Zm0 99.09c-19.63 0-27.67-16.32-27.67-34.54s8.03-34.77 27.67-34.77 27.69 16.32 27.69 34.77-8.06 34.54-27.69 34.54Zm197.81 9.61v.04c0 11.17-9.06 20.21-20.22 20.21s-20.21-9.06-20.21-20.22 9.04-20.2 20.21-20.21c11.15-.01 20.21 9.03 20.22 20.18Zm218.02-108.66c-16.38-.22-31.05 10.07-36.43 25.55h-.48v-22.72h-38.84v58.79c-.28-29.64-18.91-61.56-52.73-61.56a50.231 50.231 0 0 0-42.36 18.68h-.48v-70.05H603.4l-.03.01v177.49h39.31v-22.02h.48c8.06 15.83 24.6 25.53 42.35 24.85 36.43 0 56.03-29.88 56.3-65.96v63.13h42.61V522.2c0-24.14 11.1-38.57 30.98-38.57 4.86-.25 9.72.23 14.43 1.41l2.16-35.54c-4.77-.86-9.59-1.33-14.43-1.41Zm-145.55 96.33c-14.19 0-26.03-13.5-26.03-31.48s10.42-32.17 26.03-32.17c16.57 0 25.79 14.2 25.79 30.51 0 19.64-9.7 33.14-25.79 33.14Z" style="fill:#fff"/>
</svg>

<svg width="1024" height="1024" viewBox="0 0 1024 1024" fill="none" xmlns="http://www.w3.org/2000/svg">
<g clip-path="url(#clip0_2_2322)">
<path d="M512 1024C794.77 1024 1024 794.77 1024 512C1024 229.23 794.77 0 512 0C229.23 0 0 229.23 0 512C0 794.77 229.23 1024 512 1024Z" fill="#98DC9A"/>
<path d="M290.59 472.67H290.1C285.965 465.087 279.877 458.747 272.468 454.307C265.059 449.868 256.597 447.49 247.96 447.42C209.38 447.42 192.01 475.03 192.01 511.95C192.01 548.87 213.19 574.36 247.25 574.36C263.86 574.93 279.6 566.92 288.93 553.17H289.41V559.85C289.41 584.14 276.08 595.8 251.31 595.8C236.688 596.036 222.252 592.507 209.39 585.55L207.25 619.38C222.5 624.63 238.52 627.27 254.64 627.23C304.66 627.23 329.4 610.8 329.4 559.85V450.31H290.6V472.67H290.59ZM287.97 509.61C287.97 528.65 275.82 541.52 260.57 541.52C247.71 541.52 236.28 530.57 236.29 511.28C236.29 494.37 244.63 480.32 260.57 480.32C261.4 480.31 262.23 480.33 263.04 480.4C277.99 481.59 289.14 494.66 287.97 509.61ZM594.72 450.92L549.88 574.21H502.19L457.26 450.92H502.21L527.3 538.76H527.77L553.06 450.92H594.71H594.72ZM401.73 448.04C361.04 448.04 330.06 471.67 330.06 512.6C330.06 553.29 361.04 576.94 401.73 576.94C442.42 576.94 473.4 553.3 473.4 512.6C473.4 471.9 442.42 448.04 401.73 448.04ZM401.73 547.13C382.1 547.13 374.06 530.81 374.06 512.59C374.06 494.37 382.09 477.82 401.73 477.82C421.37 477.82 429.42 494.14 429.42 512.59C429.42 531.04 421.36 547.13 401.73 547.13ZM599.54 556.74V556.78C599.54 567.95 590.48 576.99 579.32 576.99C568.16 576.99 559.11 567.93 559.11 556.77C559.11 545.61 568.15 536.57 579.32 536.56C590.47 536.55 599.53 545.59 599.54 556.74ZM817.56 448.08C801.18 447.86 786.51 458.15 781.13 473.63H780.65V450.91H741.81V509.7C741.53 480.06 722.9 448.14 689.08 448.14C681.038 447.628 672.992 449.058 665.619 452.309C658.247 455.56 651.765 460.537 646.72 466.82H646.24V396.77H603.4L603.37 396.78V574.27H642.68V552.25H643.16C651.22 568.08 667.76 577.78 685.51 577.1C721.94 577.1 741.54 547.22 741.81 511.14V574.27H784.42V522.2C784.42 498.06 795.52 483.63 815.4 483.63C820.26 483.38 825.12 483.86 829.83 485.04L831.99 449.5C827.22 448.64 822.4 448.17 817.56 448.09V448.08ZM672.01 544.41C657.82 544.41 645.98 530.91 645.98 512.93C645.98 494.95 656.4 480.76 672.01 480.76C688.58 480.76 697.8 494.96 697.8 511.27C697.8 530.91 688.1 544.41 672.01 544.41Z" fill="white"/>
</g>
<defs>
<clipPath id="clip0_2_2322">
<rect width="1024" height="1024" fill="white"/>
</clipPath>
</defs>
</svg>
